svg/cloud-done.svg

<svg width="24" height="24" fill="none" xmlns="http://www.w3.org/2000/svg"><path d="M16 4h-6v2H8v2H4v2H2v2H0v6h2v2h20v-2h2v-6h-2v-2h-2V8h-2V6h-2V4zm0 2v2h2v4h4v6H2v-6h2v-2h4V8h2V6h6zm-6 6H8v2h2v2h2v-2h2v-2h2v-2h-2v2h-2v2h-2v-2z" fill="currentColor"/></svg>

<svg width="24" height="24" viewBox="0 0 24 24" fill="none" xmlns="http://www.w3.org/2000/svg">
<path d="M22 10H18V12H22V10Z" fill="currentColor"/>
<path d="M24 12H22V18H24V12Z" fill="currentColor"/>
<path d="M22 18H2V20H22V18Z" fill="currentColor"/>
<path d="M2 12H0V18H2V12Z" fill="currentColor"/>
<path d="M4 10H2V12H4V10Z" fill="currentColor"/>
<path d="M8 8H4V10H8V8Z" fill="currentColor"/>
<path d="M16 4H10V6H16V4Z" fill="currentColor"/>
<path d="M10 6H8V8H10V6Z" fill="currentColor"/>
<path d="M18 6H16V8H18V6Z" fill="currentColor"/>
<path d="M20 8H18V12H20V8Z" fill="currentColor"/>
<path d="M10 12H8V14H10V12Z" fill="currentColor"/>
<path d="M12 14H10V16H12V14Z" fill="currentColor"/>
<path d="M14 10H16V12H14V10Z" fill="currentColor"/>
<path d="M12 12H14V14H12V12Z" fill="currentColor"/>
</svg>
